svg/aws-ec2-trn1.svg

<?xml version="1.0" encoding="UTF-8"?>
<svg xmlns="http://www.w3.org/2000/svg" xmlns:xlink="http://www.w3.org/1999/xlink" width="32" height="32" viewBox="0 0 32 32">
<path fill-rule="evenodd" fill="rgb(83.137255%, 35.686275%, 2.745098%)" fill-opacity="1" d="M 6 26 L 26 26 L 26 6 L 6 6 Z M 27.332031 8.667969 L 27.332031 11.332031 L 30.667969 11.332031 L 30.667969 12.667969 L 27.332031 12.667969 L 27.332031 15.332031 L 30.667969 15.332031 L 30.667969 16.667969 L 27.332031 16.667969 L 27.332031 19.332031 L 30.667969 19.332031 L 30.667969 20.667969 L 27.332031 20.667969 L 27.332031 23.332031 L 30.667969 23.332031 L 30.667969 24.667969 L 27.332031 24.667969 L 27.332031 26.667969 C 27.332031 27.035156 27.035156 27.332031 26.667969 27.332031 L 24.667969 27.332031 L 24.667969 30.667969 L 23.332031 30.667969 L 23.332031 27.332031 L 20.667969 27.332031 L 20.667969 30.667969 L 19.332031 30.667969 L 19.332031 27.332031 L 16.667969 27.332031 L 16.667969 30.667969 L 15.332031 30.667969 L 15.332031 27.332031 L 12.667969 27.332031 L 12.667969 30.667969 L 11.332031 30.667969 L 11.332031 27.332031 L 8.667969 27.332031 L 8.667969 30.667969 L 7.332031 30.667969 L 7.332031 27.332031 L 5.332031 27.332031 C 4.964844 27.332031 4.667969 27.035156 4.667969 26.667969 L 4.667969 24.667969 L 1.332031 24.667969 L 1.332031 23.332031 L 4.667969 23.332031 L 4.667969 20.667969 L 1.332031 20.667969 L 1.332031 19.332031 L 4.667969 19.332031 L 4.667969 16.667969 L 1.332031 16.667969 L 1.332031 15.332031 L 4.667969 15.332031 L 4.667969 12.667969 L 1.332031 12.667969 L 1.332031 11.332031 L 4.667969 11.332031 L 4.667969 8.667969 L 1.332031 8.667969 L 1.332031 7.332031 L 4.667969 7.332031 L 4.667969 5.332031 C 4.667969 4.964844 4.964844 4.667969 5.332031 4.667969 L 7.332031 4.667969 L 7.332031 1.332031 L 8.667969 1.332031 L 8.667969 4.667969 L 11.332031 4.667969 L 11.332031 1.332031 L 12.667969 1.332031 L 12.667969 4.667969 L 15.332031 4.667969 L 15.332031 1.332031 L 16.667969 1.332031 L 16.667969 4.667969 L 19.332031 4.667969 L 19.332031 1.332031 L 20.667969 1.332031 L 20.667969 4.667969 L 23.332031 4.667969 L 23.332031 1.332031 L 24.667969 1.332031 L 24.667969 4.667969 L 26.667969 4.667969 C 27.035156 4.667969 27.332031 4.964844 27.332031 5.332031 L 27.332031 7.332031 L 30.667969 7.332031 L 30.667969 8.667969 Z M 21.097656 18.691406 L 21.972656 18.691406 L 21.972656 13.609375 L 21.179688 13.609375 L 19.726562 14.285156 L 19.726562 14.988281 L 21.097656 14.472656 Z M 16.171875 15.851562 C 16.507812 15.636719 16.839844 15.53125 17.160156 15.53125 C 17.375 15.53125 17.53125 15.585938 17.628906 15.695312 C 17.730469 15.804688 17.777344 15.980469 17.777344 16.21875 L 17.777344 18.691406 L 18.644531 18.691406 L 18.644531 15.949219 C 18.644531 15.589844 18.550781 15.320312 18.363281 15.128906 C 18.179688 14.941406 17.90625 14.847656 17.550781 14.847656 C 17.050781 14.851562 16.570312 15.023438 16.113281 15.367188 L 16.023438 14.957031 L 15.304688 14.957031 L 15.304688 18.691406 L 16.171875 18.691406 Z M 13.488281 15.984375 C 13.765625 15.800781 14.085938 15.707031 14.449219 15.707031 C 14.589844 15.707031 14.730469 15.71875 14.867188 15.742188 L 14.867188 14.949219 C 14.757812 14.9375 14.65625 14.929688 14.566406 14.929688 C 14.363281 14.929688 14.179688 14.972656 14.007812 15.0625 C 13.835938 15.148438 13.652344 15.300781 13.457031 15.515625 L 13.339844 14.957031 L 12.621094 14.957031 L 12.621094 18.691406 L 13.488281 18.691406 Z M 10.046875 14.34375 L 8.457031 14.34375 L 8.457031 13.609375 L 12.535156 13.609375 L 12.535156 14.34375 L 10.941406 14.34375 L 10.941406 18.691406 L 10.046875 18.691406 Z M 10.046875 14.34375 "/>
</svg>

<svg role="img" viewBox="0 0 32 32" xmlns="http://www.w3.org/2000/svg"><path d="M6 26h20V6H6ZM27.332 8.668v2.664h3.336v1.336h-3.336v2.664h3.336v1.336h-3.336v2.664h3.336v1.336h-3.336v2.664h3.336v1.336h-3.336v2a.664.664 0 0 1-.664.664h-2v3.336h-1.336v-3.336h-2.664v3.336h-1.336v-3.336h-2.664v3.336h-1.336v-3.336h-2.664v3.336h-1.336v-3.336H8.668v3.336H7.332v-3.336h-2a.664.664 0 0 1-.664-.664v-2H1.332v-1.336h3.336v-2.664H1.332v-1.336h3.336v-2.664H1.332v-1.336h3.336v-2.664H1.332v-1.336h3.336V8.668H1.332V7.332h3.336v-2c0-.367.297-.664.664-.664h2V1.332h1.336v3.336h2.664V1.332h1.336v3.336h2.664V1.332h1.336v3.336h2.664V1.332h1.336v3.336h2.664V1.332h1.336v3.336h2c.367 0 .664.297.664.664v2h3.336v1.336Zm-6.234 10.023h.875V13.61h-.793l-1.453.676v.703l1.37-.515Zm-4.926-2.84c.336-.214.668-.32.988-.32q.322 0 .469.164.15.165.148.524v2.472h.868V15.95c0-.36-.094-.629-.282-.82-.183-.188-.457-.281-.812-.281q-.75.001-1.438.52l-.09-.411h-.718v3.734h.867Zm-2.684.133q.417-.276.961-.277.211 0 .418.035v-.793q-.165-.018-.3-.02c-.204 0-.387.044-.56.133q-.257.13-.55.454l-.117-.559h-.719v3.734h.867Zm-3.441-1.64h-1.59v-.735h4.078v.735h-1.594v4.347h-.894Zm0 0" fill="rgb(83.137256%, 35.686275%, 2.745098%)" fill-rule="evenodd"/></svg>
